X:69
T:Gilbert Clancy's (reel)  
B:CRE1.083 (Gilibeart Mhac Fhlannchadha)
F:file ID: cre.1/069gilb_c
S:Willie Clancy
N:Also called "John [or SeÃÂÃÂÃÂÃÂ¡n] Reid's Favorite". You hear this
played occasionally with an F natural in the B part (measures
10, 12, and 14), so I've added an "alternate" part B to the
audio file so you can hear what it sounds like.
M:C
L:1/8
Q:180
R:reel
K:G
DGG2 dGG2|cAFA cAAG|DGG2 BGBd|cAFG AGG2|
DGG2 B2BG|c2cA dcAd|g2ga gfde|fdcA BGG2||
dgg2 gfde|f2fe fdcA|dgg2 gfde|fdcA BGBd|
g2ga gfde|f2fe fdef|g3a (3bag ag|fdcA BGG2|]

%%%

